X:1
T:En gammal allvarsvals
T:(Sv. L. Sm. 236)
R:Vals
O:Markaryd, Smland
S:efter Nils Gustaf Lavin
S:efter Johan Petter Andreasson
B:Svenska Ltar
N:Sv. L. Sm. 236
N:'En gammal allvarsvals', sger Lavin.
N:En sextio r gammal fiol- och klarinettspelman, Johan Petter Andreasson frn Hamneda socken, spelade valsen fr Lavin d denne var tta r gammal.
Z:Jonas Brunskog
M:3/4
L:1/8
K:D
A2 Bc de|f2 {/g}fe f2|g(f e)(d c)B|G- LG>F G2|
A(B c)(d e)(f|g2) {/a}g(f g)(a|b2) a2 c2|[df]4 z2:|
K:G
|:g2 ((3fgf) e2|d4 B2|c2 A(F A)(F|G2) B2 d2|
g2 ((3fgf) e2|d4 B2|c2 A(F A)(F|[1 G4) z2:|[2G4) zA |]
